X: 1

T:Minuet in G % title
C:Johann Sebastian Bach % composer
O:The Little Notebook for Anna Magdalena Bach % origin.
M:3/4 % meter
N:Requires notes up to B' in the upper octave
L:1/8 % length of shortest note
Q: % tempo
K:G
V:1 % voice 1
d2 GA Bc | d2 G2 G2 | e2 cd ef | g2 G2 G2 |
c2 dc BA | B2 cB AG | [1 F2 GA BG | B2 A4 :|
[2 A2 BA GF | G4 z2 | b2 ga bg | a2 de fd |
g2 ef gd | ^c2 B^c A2 | AB ^cd ef | g2 f2 e2 |
fa d2 ^c2 | d4 z2 | d2 GF G2 | e2 GF G2 |
d2 c2 B2 | AG FG A2 | DE FG | AB c2 B2 |
A2 Bd G2 | F2 G4 ||

